X: 276
T:O virgo virginum / Secunda pars: Filie Jerusalem
N: Derived from Jos2410-O_virgo_virginum.krn
C: Josquin des Prez
%%abc-version 2.0
%%abcx-abcm2ps-target-version 5.9.1 (29 Sep 2008)
%%abc-creator hum2abc beta
%%abcx-conversion-date 2019/02/12 16:15:52
%%abc-edited-by Jesse Rodin
%%abc-edited-by Will Watson 2011/10/05
%%abcx-initial-encoding-date 2011/05/20/
%%humdrum-veritas 1321273884
%%humdrum-veritas-data 227764183
%%linebreak <none>
%%barnumbers 0
L: 1/4
M: 2/1
Q: 1/2=120
V: 1 clef=treble
V: 2 clef=treble-8
V: 3 clef=treble-8
V: 4 clef=treble-8
V: 5 clef=bass
V: 6 clef=bass
K: F
[V:1] z8 | 
[V:2] z8 | 
[V:3] z8 | 
[V:4] G8- | 
[V:5] z8 | 
[V:6] G,,4C,4- | 
[V:1] z8 | 
[V:2] z8 | 
[V:3] z8 | 
[V:4] G8 | 
[V:5] z8 | 
[V:6] C,2B,,A,,B,,2C,2 | 
[V:1] z8 | 
[V:2] z8 | 
[V:3] z8 | 
[V:4] B8 | 
[V:5] D,4G,4- | 
[V:6] G,,8 | 
[V:1] z8 | 
[V:2] z8 | 
[V:3] z8 | 
[V:4] A8 | 
[V:5] G,2F,E,F,4 | 
[V:6] D,8 | 
[V:1] z8 | 
[V:2] z8 | 
[V:3] z8 | 
[V:4] B8 | 
[V:5] G,8 | 
[V:6] G,,4_E,4- | 
[V:1] z8 | 
[V:2] z8 | 
[V:3] z8 | 
[V:4] G4A4- | 
[V:5] C,3D,E,2F,2- | 
[V:6] E,2D,2C,2D,2- | 
[V:1] z8 | 
[V:2] z8 | 
[V:3] z8 | 
[V:4] A2G2G4- | 
[V:5] F,E,D,C,D,2E,2- | 
[V:6] D,C,B,,A,,B,,2C,2- | 
[V:1] z8 | 
[V:2] z8 | 
[V:3] z8 | 
[V:4] G2^FE^F4 | 
[V:5] E,D,D,4C,2 | 
[V:6] C,B,,A,,G,,A,,4 | 
[V:1] G8- | 
[V:2] z8 | 
[V:3] G4c4- | 
[V:4] G8 | 
[V:5] D,2E,4D,C, | 
[V:6] G,,2C,4B,,A,, | 
[V:1] G8 | 
[V:2] z8 | 
[V:3] c2BAB2c2 | 
[V:4] z8 | 
[V:5] G,6C,2 | 
[V:6] G,,4z4 | 
[V:1] B8 | 
[V:2] d4g4- | 
[V:3] G8 | 
[V:4] z8 | 
[V:5] G,4G,,4 | 
[V:6] z8 | 
[V:1] A8 | 
[V:2] g2fef4 | 
[V:3] d8 | 
[V:4] z8 | 
[V:5] z8 | 
[V:6] z8 | 
[V:1] B8 | 
[V:2] g8 | 
[V:3] G4_e4- | 
[V:4] z8 | 
[V:5] z8 | 
[V:6] z8 | 
[V:1] G4A4- | 
[V:2] c3de2f2- | 
[V:3] e2d2c2d2- | 
[V:4] z8 | 
[V:5] z8 | 
[V:6] z8 | 
[V:1] A2G2G4- | 
[V:2] fedcd2e2- | 
[V:3] dcBAB2c2- | 
[V:4] z8 | 
[V:5] z8 | 
[V:6] z8 | 
[V:1] G2^FEF4 | 
[V:2] edd3cd2 | 
[V:3] cBAGA4 | 
[V:4] z8 | 
[V:5] z4D,4- | 
[V:6] z8 | 
[V:1] G4z4 | 
[V:2] B2d4cB | 
[V:3] G4z4 | 
[V:4] z8 | 
[V:5] D,4F,4- | 
[V:6] G,,4D,4- | 
[V:1] z8 | 
[V:2] A2d2c4 | 
[V:3] z8 | 
[V:4] z4G4- | 
[V:5] F,2E,D,E,4 | 
[V:6] D,2B,,2C,3B,, | 
[V:1] z8 | 
[V:2] B3cd4- | 
[V:3] z8 | 
[V:4] G4B4- | 
[V:5] D,3C,B,,2G,,2 | 
[V:6] G,,6G,2- | 
[V:1] z8 | 
[V:2] d8 | 
[V:3] z8 | 
[V:4] B2AGA4 | 
[V:5] D,8 | 
[V:6] G,2F,E,F,4 | 
[V:1] z8 | 
[V:2] z8 | 
[V:3] G4B4- | 
[V:4] G8- | 
[V:5] G,,6G,2- | 
[V:6] G,4G,,4 | 
[V:1] z8 | 
[V:2] z4d4- | 
[V:3] B2AGA4 | 
[V:4] G4A4 | 
[V:5] G,2F,E,F,4 | 
[V:6] D,8 | 
[V:1] z8 | 
[V:2] d4f4- | 
[V:3] G2d4cB | 
[V:4] B6AG | 
[V:5] G,3F,D,4- | 
[V:6] G,,4z4 | 
[V:1] z8 | 
[V:2] f2ede4 | 
[V:3] A2B2G3A | 
[V:4] F2G2E2G2- | 
[V:5] D,2C,B,,C,3B,, | 
[V:6] z8 | 
[V:1] G8- | 
[V:2] d6B2- | 
[V:3] B3cd4- | 
[V:4] G2FED4 | 
[V:5] G,,8 | 
[V:6] G,4B,4- | 
[V:1] G8 | 
[V:2] Bcd2G4 | 
[V:3] d2B3cd2 | 
[V:4] d6B2- | 
[V:5] G,4B,4- | 
[V:6] B,2G,2G,4- | 
[V:1] B8- | 
[V:2] d6B2- | 
[V:3] G4d4- | 
[V:4] Bcd2G4 | 
[V:5] B,2G,2G,4- | 
[V:6] G,4G,,4- | 
[V:1] B4G4 | 
[V:2] Bcd2G4 | 
[V:3] d2B3cd2 | 
[V:4] d6B2- | 
[V:5] G,4G,,4 | 
[V:6] G,,4G,4- | 
[V:1] G8- | 
[V:2] z4g4- | 
[V:3] G4z2G2- | 
[V:4] B2G2G4 | 
[V:5] G,6E,2- | 
[V:6] G,2E,3F,G,2 | 
[V:1] G8 | 
[V:2] g2e3fge | 
[V:3] G2G2c3B | 
[V:4] E3FG4 | 
[V:5] E,F,G,2C,4 | 
[V:6] C,4z4 | 
[V:1] A8 | 
[V:2] f4z4 | 
[V:3] A4d4 | 
[V:4] D3EF2D2 | 
[V:5] F,3E,D,4 | 
[V:6] z2D,3E,F,D, | 
[V:1] B8 | 
[V:2] d8 | 
[V:3] G3AB2G2- | 
[V:4] z2G3ABG | 
[V:5] z8 | 
[V:6] G,4z4 | 
[V:1] G8 | 
[V:2] e8 | 
[V:3] G2c6 | 
[V:4] c4z4 | 
[V:5] z2C,3D,E,C, | 
[V:6] C,3D,E,2C,2 | 
[V:1] A8 | 
[V:2] c8 | 
[V:3] A3Bc2A2 | 
[V:4] z2F3GAF | 
[V:5] F,3G,A,2F,2 | 
[V:6] F,,4F,4 | 
[V:1] G8- | 
[V:2] d8 | 
[V:3] z2B4G2- | 
[V:4] B2G3ABG | 
[V:5] z2G,2G,2G,2 | 
[V:6] z4z2G,2 | 
[V:1] G8 | 
[V:2] c8- | 
[V:3] G2c3de2 | 
[V:4] c3de4 | 
[V:5] C,4z4 | 
[V:6] G,2G,2C,4 | 
[V:1] F8- | 
[V:2] c8 | 
[V:3] A3Bc2F2 | 
[V:4] z2A3Bc2 | 
[V:5] F,4F,2F,2 | 
[V:6] z4z2F,2 | 
[V:1] F8 | 
[V:2] B8- | 
[V:3] f6e2 | 
[V:4] d2D3EF2 | 
[V:5] B,,3C,D,4 | 
[V:6] F,2F,2B,,3C, | 
[V:1] z8 | 
[V:2] B8 | 
[V:3] d3cBAB2- | 
[V:4] G4z4 | 
[V:5] G,,3A,,B,,C,D,E, | 
[V:6] D,4G,,4 | 
[V:1] z8 | 
[V:2] z8 | 
[V:3] B2AGA4 | 
[V:4] z8 | 
[V:5] F,D,G,3^F,/E,/F,2 | 
[V:6] D,8 | 
[V:1] z8 | 
[V:2] d3cBAB2- | 
[V:3] G4z4 | 
[V:4] G8 | 
[V:5] G,4z4 | 
[V:6] G,,3A,,B,,C,D,E, | 
[V:1] z8 | 
[V:2] B2AGA4 | 
[V:3] z8 | 
[V:4] D8 | 
[V:5] z8 | 
[V:6] F,D,G,4^F,2 | 
[V:1] z8 | 
[V:2] G4z4 | 
[V:3] d3cBAB2- | 
[V:4] G8 | 
[V:5] G,,3A,,B,,C,D,E, | 
[V:6] G,4z2G,2 | 
[V:1] z8 | 
[V:2] z8 | 
[V:3] B2AGA4 | 
[V:4] z4z2A2 | 
[V:5] F,D,G,3^F,/E,/F,2 | 
[V:6] D,8 | 
[V:1] z8 | 
[V:2] d3cBAB2- | 
[V:3] G4z4 | 
[V:4] B3cd4- | 
[V:5] G,4z2G,2 | 
[V:6] G,2G,,A,,B,,C,D,E, | 
[V:1] z8 | 
[V:2] B2AGA4 | 
[V:3] z8 | 
[V:4] d4d3c | 
[V:5] D,8 | 
[V:6] F,D,G,4^F,2 | 
[V:1] G8- | 
[V:2] G3ABGc2- | 
[V:3] d3cd2_e2- | 
[V:4] BAG4C2 | 
[V:5] G,8 | 
[V:6] G,4z4 | 
[V:1] G8 | 
[V:2] c2B2c4 | 
[V:3] ed/c/d2_e4 | 
[V:4] G4C2c2 | 
[V:5] z8 | 
[V:6] z8 | 
[V:1] D8- | 
[V:2] z8 | 
[V:3] z8 | 
[V:4] A3GA2B2- | 
[V:5] D,3E,F,D,G,2- | 
[V:6] z2D,4G,,2 | 
[V:1] D8 | 
[V:2] z8 | 
[V:3] z8 | 
[V:4] BA/G/A2G2B2 | 
[V:5] G,2F,2G,4 | 
[V:6] D,4G,,4 | 
[V:1] G8- | 
[V:2] _e3cd2_e2- | 
[V:3] G3ABGc2- | 
[V:4] c4z4 | 
[V:5] C,4z4 | 
[V:6] z2G,4C,2 | 
[V:1] G8 | 
[V:2] ed/c/d2_e3d/c/ | 
[V:3] cB/A/B2c3B/A/ | 
[V:4] z8 | 
[V:5] z8 | 
[V:6] G,4C,4 | 
[V:1] G8 | 
[V:2] d2_e4dc | 
[V:3] G4z2c2 | 
[V:4] z8 | 
[V:5] z8 | 
[V:6] z8 | 
[V:1] B8 | 
[V:2] d2g2f2d2 | 
[V:3] B2G2B2B2 | 
[V:4] z8 | 
[V:5] z8 | 
[V:6] z8 | 
[V:1] G8 | 
[V:2] _e6_e2 | 
[V:3] c4z2c2 | 
[V:4] z8 | 
[V:5] z8 | 
[V:6] z8 | 
[V:1] B8- | 
[V:2] d2g2f4 | 
[V:3] B2G2B4- | 
[V:4] z8 | 
[V:5] z8 | 
[V:6] z8 | 
[V:1] B4G4 | 
[V:2] d4_e2_e2 | 
[V:3] B2B2c4 | 
[V:4] G8 | 
[V:5] z8 | 
[V:6] z4C,4 | 
[V:1] G4z4 | 
[V:2] d4z4 | 
[V:3] z8 | 
[V:4] B8 | 
[V:5] z2G,2F,2D,2 | 
[V:6] B,,2G,,2B,,2B,,2 | 
[V:1] z8 | 
[V:2] z8 | 
[V:3] z8 | 
[V:4] G8 | 
[V:5] _E,6E,2 | 
[V:6] C,4z2C,2 | 
[V:1] z8 | 
[V:2] z8 | 
[V:3] z8 | 
[V:4] B8- | 
[V:5] D,2G,2F,4 | 
[V:6] B,,2G,,2B,,4- | 
[V:1] z8 | 
[V:2] z8 | 
[V:3] z8 | 
[V:4] B4G4 | 
[V:5] D,4_E,4- | 
[V:6] B,,2B,,2C,4- | 
[V:1] z8 | 
[V:2] z8 | 
[V:3] z8 | 
[V:4] G8 | 
[V:5] E,2D,2_E,4- | 
[V:6] C,2B,,2C,4- | 
[V:1] z8 | 
[V:2] z8 | 
[V:3] z8 | 
[V:4] A8 | 
[V:5] E,4F,4- | 
[V:6] C,4D,4- | 
[V:1] z8 | 
[V:2] z8 | 
[V:3] z8 | 
[V:4] B8 | 
[V:5] F,4G,4- | 
[V:6] D,4_E,4- | 
[V:1] z8 | 
[V:2] z8 | 
[V:3] z8 | 
[V:4] c8 | 
[V:5] G,4A,4- | 
[V:6] E,4F,4- | 
[V:1] z8 | 
[V:2] z8 | 
[V:3] z8 | 
[V:4] d8- | 
[V:5] A,4B,4- | 
[V:6] F,4G,4- | 
[V:1] z8 | 
[V:2] z8 | 
[V:3] z8 | 
[V:4] d4c4 | 
[V:5] B,2A,2G,4 | 
[V:6] G,2F,2_E,4 | 
[V:1] A8- | 
[V:2] z4f4- | 
[V:3] A6F2 | 
[V:4] d8 | 
[V:5] F,8 | 
[V:6] D,8- | 
[V:1] A8 | 
[V:2] f2d2d4 | 
[V:3] F4z4 | 
[V:4] z4d4- | 
[V:5] z2F,4D,2 | 
[V:6] D,8 | 
[V:1] B8- | 
[V:2] z2d4B2 | 
[V:3] B6G2 | 
[V:4] d2B2B4 | 
[V:5] D,8 | 
[V:6] G,,8- | 
[V:1] B8 | 
[V:2] B3cd2G2 | 
[V:3] G4z2G2- | 
[V:4] z2B4G2 | 
[V:5] z2G,3F,E,D, | 
[V:6] G,,8 | 
[V:1] c8- | 
[V:2] g3fede2 | 
[V:3] G2E2E3F | 
[V:4] G4z2G2- | 
[V:5] C,4z2G,2 | 
[V:6] C,8- | 
[V:1] c8 | 
[V:2] c3de4 | 
[V:3] G4z4 | 
[V:4] G2E2E4 | 
[V:5] E,2C,2G,3F, | 
[V:6] C,8 | 
[V:1] d8- | 
[V:2] f8- | 
[V:3] B8 | 
[V:4] z4F4- | 
[V:5] D,2F,4D,2 | 
[V:6] B,,8- | 
[V:1] d8 | 
[V:2] f8 | 
[V:3] B2AGF2G2 | 
[V:4] F2D2D4 | 
[V:5] D,3E,F,2B,,2 | 
[V:6] B,,8 | 
[V:1] c6BA | 
[V:2] z8 | 
[V:3] A6B2 | 
[V:4] E4z2E2- | 
[V:5] C,8 | 
[V:6] A,,8 | 
[V:1] G2A3FB2- | 
[V:2] z8 | 
[V:3] c4d4 | 
[V:4] ECF3DG2- | 
[V:5] z8 | 
[V:6] z8 | 
[V:1] BGc3BAG | 
[V:2] z8 | 
[V:3] e8 | 
[V:4] GFEDC4 | 
[V:5] z8 | 
[V:6] z8 | 
[V:1] F8 | 
[V:2] z8 | 
[V:3] d4z4 | 
[V:4] D4z2d2 | 
[V:5] A,8 | 
[V:6] D,8 | 
[V:1] z8 | 
[V:2] z8 | 
[V:3] z8 | 
[V:4] d4c4 | 
[V:5] A,4A,4 | 
[V:6] F,4F,4 | 
[V:1] z8 | 
[V:2] z8 | 
[V:3] z8 | 
[V:4] d8- | 
[V:5] B,6A,G, | 
[V:6] B,,6C,2 | 
[V:1] z8 | 
[V:2] z8 | 
[V:3] z8 | 
[V:4] d4c4 | 
[V:5] F,4G,4- | 
[V:6] D,4E,4- | 
[V:1] z8 | 
[V:2] z8 | 
[V:3] z8 | 
[V:4] B4A2G2- | 
[V:5] G,2F,2E,2D,2 | 
[V:6] E,2D,2C,2B,,2 | 
[V:1] z8 | 
[V:2] c8 | 
[V:3] z4A4 | 
[V:4] G2^FE^F4 | 
[V:5] E,4C,4 | 
[V:6] A,,8 | 
[V:1] d8 | 
[V:2] Bcdef2g2- | 
[V:3] B6AG | 
[V:4] G4z4 | 
[V:5] D,4z4 | 
[V:6] G,,4z4 | 
[V:1] d4c4 | 
[V:2] gfd2e4 | 
[V:3] B4A4 | 
[V:4] z8 | 
[V:5] z8 | 
[V:6] z8 | 
[V:1] d8- | 
[V:2] d6e2 | 
[V:3] B6c2 | 
[V:4] z8 | 
[V:5] z8 | 
[V:6] z8 | 
[V:1] d4c4 | 
[V:2] f4g4- | 
[V:3] d4_e4- | 
[V:4] z8 | 
[V:5] z8 | 
[V:6] z8 | 
[V:1] B4A2G2- | 
[V:2] g2f2e2d2 | 
[V:3] e2d2c2B2 | 
[V:4] z8 | 
[V:5] z8 | 
[V:6] z8 | 
[V:1] G2^FEF4 | 
[V:2] d8 | 
[V:3] A8 | 
[V:4] z4F4 | 
[V:5] D,8- | 
[V:6] z8 | 
[V:1] G4B4- | 
[V:2] z8 | 
[V:3] G8 | 
[V:4] B6AG | 
[V:5] D,4_E,4 | 
[V:6] G,,8- | 
[V:1] B2AGF4 | 
[V:2] d6f2- | 
[V:3] B6AG | 
[V:4] d4z2D2 | 
[V:5] D,8 | 
[V:6] G,,4B,,4- | 
[V:1] B4A4- | 
[V:2] f2F3GAB | 
[V:3] F8 | 
[V:4] F6ED | 
[V:5] z4C,4 | 
[V:6] B,,2A,,G,,F,,4- | 
[V:1] A2G2F4 | 
[V:2] c8 | 
[V:3] A8 | 
[V:4] C8 | 
[V:5] F,6E,2 | 
[V:6] F,,8 | 
[V:1] E3DEFG2- | 
[V:2] z4c4- | 
[V:3] G8- | 
[V:4] c6BA | 
[V:5] C,8 | 
[V:6] z4C,4- | 
[V:1] GFEDE4 | 
[V:2] c2BAc4 | 
[V:3] G8 | 
[V:4] G2c3BG2 | 
[V:5] E,8 | 
[V:6] C,4C,4 | 
[V:1] F4z2F2- | 
[V:2] z2A2d4- | 
[V:3] F8- | 
[V:4] A2F4B2- | 
[V:5] D,8- | 
[V:6] F,,4B,,4- | 
[V:1] F2EDF3G | 
[V:2] d2cBd3e | 
[V:3] F8- | 
[V:4] B2F2B4 | 
[V:5] D,8 | 
[V:6] B,,4B,,4 | 
[V:1] A6GF | 
[V:2] f8- | 
[V:3] F8- | 
[V:4] A8- | 
[V:5] C,8- | 
[V:6] F,,8- | 
[V:1] c8 ||  
[V:2] f8 ||  
[V:3] F8 ||  
[V:4] A8 ||  
[V:5] C,8 ||  
[V:6] F,,8 ||  
[V:1] [M:2/1]G8- | 
[V:2] [M:2/1]z8 | 
[V:3] [M:2/1]z4G3A | 
[V:4] [M:2/1]G3AB3c | 
[V:5] [M:2/1]z8 | 
[V:6] [M:2/1]z8 | 
[V:1] G8 | 
[V:2] G3AB3c | 
[V:3] B3cd4 | 
[V:4] d4G4- | 
[V:5] z8 | 
[V:6] z8 | 
[V:1] B8- | 
[V:2] d4G2B2- | 
[V:3] G2B3cd2 | 
[V:4] G8 | 
[V:5] z8 | 
[V:6] z8 | 
[V:1] B4B4 | 
[V:2] Bcd2G2B2- | 
[V:3] G2B3cd2 | 
[V:4] G8 | 
[V:5] z8 | 
[V:6] z8 | 
[V:1] B8 | 
[V:2] Bcd2G2g2- | 
[V:3] G8 | 
[V:4] G3AB3c | 
[V:5] z8 | 
[V:6] z8 | 
[V:1] A8 | 
[V:2] g2fef4 | 
[V:3] z8 | 
[V:4] d8 | 
[V:5] z8 | 
[V:6] z8 | 
[V:1] G8 | 
[V:2] B3ABcd2- | 
[V:3] d8 | 
[V:4] G6FE | 
[V:5] z8 | 
[V:6] z8 | 
[V:1] A2D3EFG | 
[V:2] d2cBA3B | 
[V:3] f8- | 
[V:4] D8 | 
[V:5] z8 | 
[V:6] z8 | 
[V:1] A3Bc2d2- | 
[V:2] F3GA2B2- | 
[V:3] f4f4 | 
[V:4] z8 | 
[V:5] z8 | 
[V:6] z8 | 
[V:1] d2cBA2c2- | 
[V:2] B2AGF2A2- | 
[V:3] f8 | 
[V:4] z8 | 
[V:5] z8 | 
[V:6] z8 | 
[V:1] c2BAG3A | 
[V:2] A2B2c3B | 
[V:3] e8 | 
[V:4] z8 | 
[V:5] z8 | 
[V:6] z8 | 
[V:1] B2AGF2A2- | 
[V:2] G3ABAc2- | 
[V:3] d3cd2e2- | 
[V:4] z8 | 
[V:5] z8 | 
[V:6] z8 | 
[V:1] AGG4^F2 | 
[V:2] cBG2A4 | 
[V:3] edd4c2 | 
[V:4] z8 | 
[V:5] z8 | 
[V:6] z8 | 
[V:1] G8 | 
[V:2] G8 | 
[V:3] d8 | 
[V:4] z4G4 | 
[V:5] z4D,4 | 
[V:6] z4G,,4 | 
[V:1] z8 | 
[V:2] z8 | 
[V:3] z8 | 
[V:4] B6B2 | 
[V:5] F,6F,2 | 
[V:6] D,6D,2 | 
[V:1] z8 | 
[V:2] z8 | 
[V:3] z8 | 
[V:4] B4A4 | 
[V:5] F,4E,4 | 
[V:6] D,4C,4 | 
[V:1] z8 | 
[V:2] z8 | 
[V:3] z8 | 
[V:4] G3FG2A2- | 
[V:5] D,3C,D,2E,2- | 
[V:6] B,,3A,,B,,2C,2- | 
[V:1] z8 | 
[V:2] z8 | 
[V:3] z8 | 
[V:4] AGG4^F2 | 
[V:5] E,D,D,4C,2 | 
[V:6] C,B,,G,,2A,,4 | 
[V:1] G8- | 
[V:2] G6B2- | 
[V:3] z4G4- | 
[V:4] G2B4AG | 
[V:5] D,8 | 
[V:6] G,,8- | 
[V:1] G8 | 
[V:2] B2AGd4 | 
[V:3] G2B4AG | 
[V:4] d4z2d2- | 
[V:5] z4D,4- | 
[V:6] G,,8 | 
[V:1] F8- | 
[V:2] z2d4cB | 
[V:3] d4z2d2- | 
[V:4] d2cBA2D2 | 
[V:5] D,2F,4E,D, | 
[V:6] D,8- | 
[V:1] F8 | 
[V:2] A4z2d2- | 
[V:3] d2cBA4 | 
[V:4] F2G2A4 | 
[V:5] A,3G,F,E,D,2- | 
[V:6] D,8 | 
[V:1] G8- | 
[V:2] d2d2B2G2 | 
[V:3] G2d4d2 | 
[V:4] B4z4 | 
[V:5] D,2B,,2G,,2B,,2- | 
[V:6] G,,8- | 
[V:1] G8 | 
[V:2] B3cd4 | 
[V:3] B2G2B3c | 
[V:4] z2d4d2 | 
[V:5] B,,C,D,4G,,2 | 
[V:6] G,,8 | 
[V:1] B8- | 
[V:2] z2d4d2 | 
[V:3] d4z2d2- | 
[V:4] B2G2B3c | 
[V:5] G,,8- | 
[V:6] G,8- | 
[V:1] B8 | 
[V:2] B2G2B3c | 
[V:3] d2d2B2G2 | 
[V:4] d4z2d2- | 
[V:5] G,,4G,4- | 
[V:6] G,4G,,4 | 
[V:1] G8- | 
[V:2] d4z2d2- | 
[V:3] B3cd4 | 
[V:4] d2d2B2G2 | 
[V:5] G,2F,E,D,4 | 
[V:6] G,,8- | 
[V:1] G8 | 
[V:2] d2d2B2B2 | 
[V:3] z2d3cde | 
[V:4] B3cd4- | 
[V:5] G,8 | 
[V:6] G,,8 | 
[V:1] A8- | 
[V:2] A6F2 | 
[V:3] f3edcd2- | 
[V:4] d4z4 | 
[V:5] F,8 | 
[V:6] D,8 | 
[V:1] A8 | 
[V:2] F2f3edc | 
[V:3] d2cBA4 | 
[V:4] A4d4- | 
[V:5] D,3E,F,4 | 
[V:6] z4D,4 | 
[V:1] G8- | 
[V:2] d4G2c2- | 
[V:3] B4_E2_e2- | 
[V:4] d2G2c2BA | 
[V:5] B,,4C,4- | 
[V:6] G,,4G,4- | 
[V:1] G8 | 
[V:2] c2BAG3A | 
[V:3] e2d4c2 | 
[V:4] G4C4 | 
[V:5] C,2D,2_E,4 | 
[V:6] G,2F,2_E,4 | 
[V:1] F8- | 
[V:2] BAd4cB | 
[V:3] d4z2d2- | 
[V:4] z2F3GA2 | 
[V:5] F,3G,A,2D,2- | 
[V:6] D,8- | 
[V:1] F8 | 
[V:2] A4d3c | 
[V:3] d2cBA4 | 
[V:4] D3EF4 | 
[V:5] D,E,F,4D,2 | 
[V:6] D,8 | 
[V:1] z8 | 
[V:2] BAB4AG | 
[V:3] G6B2- | 
[V:4] z4G4 | 
[V:5] _E,4D,4- | 
[V:6] G,,8 | 
[V:1] z8 | 
[V:2] d4z4 | 
[V:3] B2AGd4- | 
[V:4] B6AG | 
[V:5] D,4z4 | 
[V:6] z4G,,4 | 
[V:1] z8 | 
[V:2] z8 | 
[V:3] d8 | 
[V:4] F2G2D4- | 
[V:5] D,4F,4- | 
[V:6] B,,6B,,2 | 
[V:1] z8 | 
[V:2] z8 | 
[V:3] z8 | 
[V:4] D4C4 | 
[V:5] F,2F,2F,4 | 
[V:6] B,,4A,,4 | 
[V:1] z8 | 
[V:2] z8 | 
[V:3] z8 | 
[V:4] z2G2B4- | 
[V:5] E,4D,2G,,2- | 
[V:6] G,,2G,,3A,,B,,C, | 
[V:1] z8 | 
[V:2] z8 | 
[V:3] z8 | 
[V:4] B2B2B4 | 
[V:5] G,,A,,B,,C,D,2_E,2 | 
[V:6] D,G,,B,3A,G,2- | 
[V:1] z8 | 
[V:2] z4G4 | 
[V:3] z8 | 
[V:4] A4z4 | 
[V:5] C,2D,2z2G,,2- | 
[V:6] G,^F,/E,/F,2G,4 | 
[V:1] z8 | 
[V:2] B6B2 | 
[V:3] z8 | 
[V:4] z8 | 
[V:5] G,,A,,B,,C,D,G,,B,2- | 
[V:6] z2G,,3A,,B,,C, | 
[V:1] z8 | 
[V:2] B4A4 | 
[V:3] z8 | 
[V:4] z8 | 
[V:5] B,A,G,3^F,/E,/F,2 | 
[V:6] D,2_E,2C,2D,2 | 
[V:1] z8 | 
[V:2] z4z2d2 | 
[V:3] G4B4- | 
[V:4] B4d4- | 
[V:5] G,8 | 
[V:6] G,,8 | 
[V:1] z8 | 
[V:2] f6f2 | 
[V:3] B2B2B4 | 
[V:4] d2d2d4 | 
[V:5] z8 | 
[V:6] z8 | 
[V:1] z4G4 | 
[V:2] f4e3d/c/ | 
[V:3] A4z4 | 
[V:4] c6BA | 
[V:5] z8 | 
[V:6] z8 | 
[V:1] B6B2 | 
[V:2] d2g4f2- | 
[V:3] z2d3cBA | 
[V:4] G2B3AGF | 
[V:5] z8 | 
[V:6] z8 | 
[V:1] B4A4 | 
[V:2] f2e2f3e | 
[V:3] B3cd2c2 | 
[V:4] G4F4 | 
[V:5] z8 | 
[V:6] z8 | 
[V:1] G3FG2A2- | 
[V:2] d3cBAc2 | 
[V:3] B2d3cA2 | 
[V:4] G6F2 | 
[V:5] z8 | 
[V:6] z8 | 
[V:1] AGG4^F2 | 
[V:2] G4A4 | 
[V:3] B2c2d4 | 
[V:4] E4D4 | 
[V:5] z4D,4 | 
[V:6] z8 | 
[V:1] G4z4 | 
[V:2] G4z4 | 
[V:3] B4z4 | 
[V:4] z8 | 
[V:5] G,6F,2 | 
[V:6] G,,3A,,B,,C,D,2- | 
[V:1] z8 | 
[V:2] z2g4f2 | 
[V:3] z8 | 
[V:4] G3ABAd2- | 
[V:5] E,4D,4 | 
[V:6] D,2C,2D,4 | 
[V:1] z8 | 
[V:2] d2e4d2- | 
[V:3] z8 | 
[V:4] d2c2B2A2- | 
[V:5] z2C,2E,3F, | 
[V:6] G,6F,2 | 
[V:1] z2G4F2 | 
[V:2] d2c2d3c | 
[V:3] z4z2d2- | 
[V:4] A2G2A4 | 
[V:5] G,2C,2F,2D,2 | 
[V:6] E,4D,4 | 
[V:1] E4D4- | 
[V:2] A2c2G4 | 
[V:3] d2c2B4 | 
[V:4] z4z2G2- | 
[V:5] A,4z4 | 
[V:6] z8 | 
[V:1] D4z2G2- | 
[V:2] z2d4c2 | 
[V:3] A4z4 | 
[V:4] G2F2E4 | 
[V:5] z8 | 
[V:6] z8 | 
[V:1] G2F4E2 | 
[V:2] B4A4 | 
[V:3] z8 | 
[V:4] D4z4 | 
[V:5] z4z2A,2- | 
[V:6] z2D,4C,2 | 
[V:1] D4z2F2 | 
[V:2] z8 | 
[V:3] z2d4c2- | 
[V:4] D4A4- | 
[V:5] A,2G,2F,2E,D, | 
[V:6] B,,4A,,4- | 
[V:1] E2D4C2 | 
[V:2] z2A3Bc2 | 
[V:3] cBAGA4 | 
[V:4] A2F2E4 | 
[V:5] C,3D,E,4 | 
[V:6] A,,8 | 
[V:1] [M:3/1]D12 | 
[V:2] [M:3/1]F12 | 
[V:3] [M:3/1]A12- | 
[V:4] [M:3/1]D8z4 | 
[V:5] [M:3/1]F,8D,4 | 
[V:6] [M:3/1]D,8z4 | 
[V:1] z12 | 
[V:2] z4z4c4- | 
[V:3] A8z4 | 
[V:4] F8G4- | 
[V:5] D,8z4 | 
[V:6] D,8C,4- | 
[V:1] z12 | 
[V:2] c4d8 | 
[V:3] z12 | 
[V:4] G4B8 | 
[V:5] z12 | 
[V:6] C,4B,,8 | 
[V:1] z12 | 
[V:2] f8e4 | 
[V:3] z12 | 
[V:4] A4F4G4 | 
[V:5] z12 | 
[V:6] D,8C,4 | 
[V:1] z12 | 
[V:2] c4e6d2 | 
[V:3] z12 | 
[V:4] A4G6FE | 
[V:5] z12 | 
[V:6] F,4C,4D,4- | 
[V:1] z12 | 
[V:2] d6^c=B^c4 | 
[V:3] z12 | 
[V:4] F4G8 | 
[V:5] z12 | 
[V:6] D,4E,8 | 
[V:1] F8G4- | 
[V:2] d8e4- | 
[V:3] z4z4c4- | 
[V:4] z12 | 
[V:5] D,8C,4- | 
[V:6] D,4F,4E,4- | 
[V:1] G4B8 | 
[V:2] e4f8 | 
[V:3] c4d8 | 
[V:4] z4F6G2 | 
[V:5] C,4B,,8 | 
[V:6] E,4D,8 | 
[V:1] A8F4 | 
[V:2] d6c2A4 | 
[V:3] f6e2c2d2 | 
[V:4] A4F8 | 
[V:5] F,8F,4 | 
[V:6] D,8z4 | 
[V:1] G4A6G2 | 
[V:2] G4d4B4 | 
[V:3] e4d8 | 
[V:4] c4F4B4 | 
[V:5] C,4F,4G,4 | 
[V:6] G,4D,4_E,4- | 
[V:1] G6^FEF4 | 
[V:2] c4A4F4 | 
[V:3] c4d8 | 
[V:4] G4A8 | 
[V:5] C,4F,8 | 
[V:6] E,4D,8 | 
[V:1] G12 | 
[V:2] B12 | 
[V:3] d8z4 | 
[V:4] G8z4 | 
[V:5] D,8z4 | 
[V:6] G,,8z4 | 
[V:1] z12 | 
[V:2] z4z4c4- | 
[V:3] z12 | 
[V:4] F8G4- | 
[V:5] z12 | 
[V:6] D,8C,4- | 
[V:1] z12 | 
[V:2] c4d8 | 
[V:3] z12 | 
[V:4] G4B8 | 
[V:5] z12 | 
[V:6] C,4B,,8 | 
[V:1] z12 | 
[V:2] f8e4 | 
[V:3] z12 | 
[V:4] A4F4G4 | 
[V:5] z12 | 
[V:6] D,8C,4 | 
[V:1] z12 | 
[V:2] c4e6d2 | 
[V:3] z12 | 
[V:4] A4G6FE | 
[V:5] z12 | 
[V:6] F,4C,4D,4- | 
[V:1] z12 | 
[V:2] d6^c=B^c4 | 
[V:3] z12 | 
[V:4] F4G8 | 
[V:5] z12 | 
[V:6] D,4E,8 | 
[V:1] F8G4- | 
[V:2] d8e4- | 
[V:3] z4z4c4- | 
[V:4] z12 | 
[V:5] D,8C,4- | 
[V:6] D,4F,4E,4- | 
[V:1] G4B8 | 
[V:2] e4f8 | 
[V:3] c4d8 | 
[V:4] z4F6G2 | 
[V:5] C,4B,,8 | 
[V:6] E,4D,8 | 
[V:1] A8F4 | 
[V:2] d6c2A4 | 
[V:3] f6e2c2d2 | 
[V:4] A4F8 | 
[V:5] F,8F,4 | 
[V:6] D,8z4 | 
[V:1] G4A6G2 | 
[V:2] G4d4B4 | 
[V:3] e4d8 | 
[V:4] c4F4B4 | 
[V:5] C,4F,4G,4 | 
[V:6] G,4D,4_E,4- | 
[V:1] G6^FEF4 | 
[V:2] c4A4F4 | 
[V:3] c4d8 | 
[V:4] G4A8 | 
[V:5] C,4F,8 | 
[V:6] E,4D,8 | 
[V:1] [M:2/1]G4B4- | 
[V:2] [M:2/1]B6AG | 
[V:3] [M:2/1]d8 | 
[V:4] [M:2/1]G8- | 
[V:5] [M:2/1]D,8- | 
[V:6] [M:2/1]G,,8- | 
[V:1] B2AGd4 | 
[V:2] d4G4 | 
[V:3] B8 | 
[V:4] G8- | 
[V:5] D,8 | 
[V:6] G,,8 | 
[V:1] c6BA | 
[V:2] z4c4- | 
[V:3] c4z2c2- | 
[V:4] G8- | 
[V:5] _E,8- | 
[V:6] C,8- | 
[V:1] G6A2 | 
[V:2] c2d2_e2f2 | 
[V:3] c2BAG4- | 
[V:4] G8- | 
[V:5] E,8 | 
[V:6] C,8 | 
[V:1] B2c2d4 | 
[V:2] g8- | 
[V:3] G2A2B3c | 
[V:4] G8- | 
[V:5] D,8- | 
[V:6] G,,8- | 
[V:1] d8 |]  
[V:2] g8 |]  
[V:3] d8 |]  
[V:4] G8 |]  
[V:5] D,8 |]  
[V:6] G,,8 |]  



